images/about1.svg

<svg width="156" height="170" viewBox="0 0 156 170" fill="none" xmlns="http://www.w3.org/2000/svg">
<path fill-rule="evenodd" clip-rule="evenodd" d="M45.3788 143.493C58.2249 152.196 74.2442 154.037 93.437 149.016C112.683 143.982 125.776 134.525 132.714 120.645C139.691 106.697 140.284 88.6512 134.492 66.5094C128.713 44.422 119.423 29.1093 106.62 20.571C93.817 12.0328 77.7653 10.2882 58.4655 15.3372C39.2188 20.3723 26.1049 29.7468 19.1235 43.4608C12.1959 57.1607 11.6211 75.0542 17.3994 97.1417C17.5496 97.716 17.7022 98.2855 17.8572 98.851C18.8737 102.558 23.182 104.103 26.4382 102.06L40.0463 93.5237C42.8082 91.7916 43.6566 88.1561 41.947 85.38L30.1711 66.2585C27.3611 61.2263 26.1205 56.8135 26.4493 53.0201C26.8318 49.2124 28.619 46.2731 31.8108 44.2024C35.0566 42.1174 39.0944 41.4142 43.9246 42.0925L113.225 51.4166C117.621 51.9731 120.615 53.8675 122.207 57.0995C123.839 60.2625 123.711 63.9447 121.823 68.1459L92.4121 133.572C91.0569 136.516 89.0103 138.463 86.2724 139.415C83.5881 140.352 80.8597 140.243 78.0869 139.085C75.3142 137.927 73.123 136.029 71.5134 133.39L59.5863 114.022C57.8567 111.214 54.1691 110.353 51.3748 112.106L34.1665 122.901C31.4005 124.636 30.5298 128.301 32.4792 130.921C36.2886 136.039 40.5886 140.23 45.3788 143.493Z" fill="#E6EEFF" fill-opacity="0.6"/>
</svg>

<svg width="156" height="170" fill="none" xmlns="http://www.w3.org/2000/svg"><path fill-rule="evenodd" clip-rule="evenodd" d="M45.379 143.493c12.846 8.703 28.865 10.544 48.058 5.523 19.246-5.034 32.339-14.491 39.277-28.371 6.977-13.948 7.57-31.994 1.778-54.136-5.779-22.087-15.069-37.4-27.872-45.938-12.803-8.538-28.855-10.283-48.155-5.234-19.246 5.035-32.36 14.41-39.342 28.124-6.927 13.7-7.502 31.593-1.724 53.68.15.575.303 1.144.458 1.71 1.017 3.707 5.325 5.252 8.581 3.209l13.608-8.536a5.938 5.938 0 001.901-8.144L30.171 66.259c-2.81-5.033-4.05-9.446-3.722-13.239.383-3.808 2.17-6.747 5.362-8.818 3.246-2.085 7.283-2.788 12.114-2.11l69.3 9.325c4.396.556 7.39 2.45 8.982 5.682 1.632 3.164 1.504 6.846-.384 11.047l-29.41 65.426c-1.356 2.944-3.403 4.891-6.14 5.843-2.685.937-5.413.828-8.186-.33-2.773-1.158-4.964-3.056-6.574-5.695l-11.927-19.368a5.938 5.938 0 00-8.211-1.916l-17.209 10.795c-2.765 1.735-3.636 5.4-1.687 8.02 3.81 5.118 8.11 9.309 12.9 12.572z" fill="#E6EEFF" fill-opacity=".6"/></svg>
